X: 10187
T: Dinny O'Brien's
R: reel
M: 4/4
K: Dmixolydian
a3g|:fdB/^c/d dcAB|c2Bd cAGE|D2AD E/F/GAB|cBce d^cAg|
fdB/^c/d dcAB|c2Bd cAGE|D2AD E/F/GAB|cAGE D3g:|
fdB/^c/d defg|a3b agfd|c2cB cdef|g2ga fdfg|a2ag f2ef|
edAB cAGE|D2AD E/F/GAB|cAGE D3g:|

